src/assets/svg/icons/fa/nuevos/classic/light/watch-calculator classic light.svg

<svg xmlns="http://www.w3.org/2000/svg" viewBox="0 0 384 512"><!--! Font Awesome Pro 6.4.0 by @fontawesome - https://fontawesome.com License - https://fontawesome.com/license (Commercial License) Copyright 2023 Fonticons, Inc. --><path d="M96 48V64H288V48c0-8.8-7.2-16-16-16H112c-8.8 0-16 7.2-16 16zM64 65.6V48C64 21.5 85.5 0 112 0H272c26.5 0 48 21.5 48 48V65.6c36.5 7.4 64 39.7 64 78.4V368c0 38.7-27.5 71-64 78.4V464c0 26.5-21.5 48-48 48l-160 0c-26.5 0-48-21.5-48-48l0-17.6C27.5 439 0 406.7 0 368V144c0-38.7 27.5-71 64-78.4zM96 464c0 8.8 7.2 16 16 16l160 0c8.8 0 16-7.2 16-16V448H96v16zM80 96c-26.5 0-48 21.5-48 48V368c0 26.5 21.5 48 48 48H304c26.5 0 48-21.5 48-48V144c0-26.5-21.5-48-48-48H80zm16 96H288V160H96v32zM64 144c0-8.8 7.2-16 16-16H304c8.8 0 16 7.2 16 16v64c0 8.8-7.2 16-16 16H80c-8.8 0-16-7.2-16-16V144zm64 136a24 24 0 1 1 -48 0 24 24 0 1 1 48 0zm64 24a24 24 0 1 1 0-48 24 24 0 1 1 0 48zm112-24a24 24 0 1 1 -48 0 24 24 0 1 1 48 0zM104 384a24 24 0 1 1 0-48 24 24 0 1 1 0 48zm112-24a24 24 0 1 1 -48 0 24 24 0 1 1 48 0zm64 24a24 24 0 1 1 0-48 24 24 0 1 1 0 48z"/></svg>

<svg xmlns="http://www.w3.org/2000/svg" viewBox="0 0 384 512"><path d="M64 144C64 135.2 71.16 128 80 128H304C312.8 128 320 135.2 320 144V208C320 216.8 312.8 224 304 224H80C71.16 224 64 216.8 64 208V144zM288 192V160H96V192H288zM80 280C80 266.7 90.75 256 104 256C117.3 256 128 266.7 128 280C128 293.3 117.3 304 104 304C90.75 304 80 293.3 80 280zM216 280C216 293.3 205.3 304 192 304C178.7 304 168 293.3 168 280C168 266.7 178.7 256 192 256C205.3 256 216 266.7 216 280zM256 280C256 266.7 266.7 256 280 256C293.3 256 304 266.7 304 280C304 293.3 293.3 304 280 304C266.7 304 256 293.3 256 280zM128 360C128 373.3 117.3 384 104 384C90.75 384 80 373.3 80 360C80 346.7 90.75 336 104 336C117.3 336 128 346.7 128 360zM168 360C168 346.7 178.7 336 192 336C205.3 336 216 346.7 216 360C216 373.3 205.3 384 192 384C178.7 384 168 373.3 168 360zM304 360C304 373.3 293.3 384 280 384C266.7 384 256 373.3 256 360C256 346.7 266.7 336 280 336C293.3 336 304 346.7 304 360zM64 65.6V48C64 21.49 85.49 0 112 0H272C298.5 0 320 21.49 320 48V65.6C356.5 73.01 384 105.3 384 144V368C384 406.7 356.5 438.1 320 446.4V464C320 490.5 298.5 512 272 512H112C85.49 512 64 490.5 64 464V446.4C27.48 438.1 0 406.7 0 368V144C0 105.3 27.48 73.01 64 65.6zM96 64H288V48C288 39.16 280.8 32 272 32H112C103.2 32 96 39.16 96 48V64zM112 480H272C280.8 480 288 472.8 288 464V448H96V464C96 472.8 103.2 480 112 480zM32 144V368C32 394.5 53.49 416 80 416H304C330.5 416 352 394.5 352 368V144C352 117.5 330.5 96 304 96H80C53.49 96 32 117.5 32 144z"/></svg>
